X: 17243
T: Herb Reid's
R: polka
M: 2/4
K: Dmajor
|:~d2 cB|AF DE/F/|GE EB|BA FA|
~d2 cB|AF DE/F/|GE AE|1 D2 DB:|2 D2 DA||
|:FA AB/c/|de fa|ge Bc|dc BA|
FA AB/c/|de fa|ge Bc|1 d2 dA:|2 d2 dB||

